_includes/icons/color-bluetooth.svg

<svg fill="#666" height="50" viewBox="0 0 48 48" width="50" xmlns="http://www.w3.org/2000/svg"><path d="m21 47v-18.199219l-7.199219 7.199219-2.800781-2.800781 9.199219-9.199219-9.097656-9.101562 2.796875-2.796875 7.101562 7.097656v-18.199219l15 13-10.199219 10 10.199219 10zm4-18.199219v9.699219l5.101563-4.601562zm0-19.300781v9.699219l5.101563-5.097656z" fill="#3f51b5"/></svg>

<svg xmlns="http://www.w3.org/2000/svg" viewBox="0 0 48 48" width="50" height="50" fill="#666"><path d="M 21 47 L 21 28.800781 L 13.800781 36 L 11 33.199219 L 20.199219 24 L 11.101563 14.898438 L 13.898438 12.101563 L 21 19.199219 L 21 1 L 36 14 L 25.800781 24 L 36 34 Z M 25 28.800781 L 25 38.5 L 30.101563 33.898438 Z M 25 9.5 L 25 19.199219 L 30.101563 14.101563 Z" fill="#3f51b5"/></svg>
